Newaita-dark/actions/22/code-typedef.svg

<?xml version="1.0" encoding="UTF-8"?>
<svg xmlns="http://www.w3.org/2000/svg" xmlns:xlink="http://www.w3.org/1999/xlink" width="22pt" height="22pt" viewBox="0 0 22 22" version="1.1">
<g id="surface1">
<path style=" stroke:none;fill-rule:nonzero;fill:rgb(47.058824%,56.470591%,61.176473%);fill-opacity:1;" d="M 4.546875 1.082031 C 2.53125 1.082031 0.910156 2.703125 0.910156 4.71875 C 0.910156 6.734375 2.53125 8.359375 4.546875 8.359375 L 4.546875 6.992188 C 3.289062 6.992188 2.273438 5.980469 2.273438 4.71875 C 2.273438 3.460938 3.289062 2.445312 4.546875 2.445312 C 5.808594 2.445312 6.820312 3.460938 6.820312 4.71875 L 8.1875 4.71875 C 8.1875 2.703125 6.5625 1.082031 4.546875 1.082031 Z M 4.546875 8.359375 L 0.910156 8.359375 L 0.910156 19.273438 L 4.546875 19.273438 L 4.546875 17.453125 L 2.730469 17.453125 L 2.730469 10.175781 L 4.546875 10.175781 Z M 4.546875 11.996094 L 20.921875 11.996094 Z M 4.546875 16.542969 L 20.921875 16.542969 Z M 4.546875 16.542969 "/>
<path style=" stroke:none;fill-rule:nonzero;fill:rgb(74.117649%,74.117649%,74.117649%);fill-opacity:1;" d="M 5.003906 16.542969 L 20.464844 16.542969 C 20.71875 16.542969 20.921875 16.75 20.921875 17 L 20.921875 19.726562 C 20.921875 19.980469 20.71875 20.183594 20.464844 20.183594 L 5.003906 20.183594 C 4.75 20.183594 4.546875 19.980469 4.546875 19.726562 L 4.546875 17 C 4.546875 16.75 4.75 16.542969 5.003906 16.542969 Z M 5.003906 16.542969 "/>
<path style=" stroke:none;fill-rule:nonzero;fill:rgb(74.117649%,74.117649%,74.117649%);fill-opacity:1;" d="M 5.457031 4.71875 C 4.953125 4.71875 4.546875 5.125 4.546875 5.628906 L 4.546875 11.085938 C 4.546875 11.589844 4.953125 11.996094 5.457031 11.996094 L 20.011719 11.996094 C 20.515625 11.996094 20.921875 11.589844 20.921875 11.085938 L 20.921875 5.628906 C 20.921875 5.125 20.515625 4.71875 20.011719 4.71875 Z M 6.367188 6.085938 L 19.101562 6.085938 C 19.351562 6.085938 19.554688 6.285156 19.554688 6.539062 L 19.554688 10.175781 C 19.554688 10.429688 19.351562 10.632812 19.101562 10.632812 L 6.367188 10.632812 C 6.113281 10.632812 5.914062 10.429688 5.914062 10.175781 L 5.914062 6.539062 C 5.914062 6.285156 6.113281 6.085938 6.367188 6.085938 Z M 6.367188 6.085938 "/>
</g>
</svg>

<svg xmlns="http://www.w3.org/2000/svg" width="22pt" height="22pt" viewBox="0 0 22 22"><path d="M4.547 1.082A3.628 3.628 0 0 0 .91 4.719a3.631 3.631 0 0 0 3.637 3.64V6.992A2.268 2.268 0 0 1 2.273 4.72a2.27 2.27 0 0 1 2.274-2.274A2.268 2.268 0 0 1 6.82 4.72h1.367a3.631 3.631 0 0 0-3.64-3.637zm0 7.277H.91v10.914h3.637v-1.82H2.73v-7.277h1.817zm0 3.637h16.375zm0 4.547h16.375zm0 0" fill="#78909c"/><path d="M5.004 16.543h15.46c.255 0 .458.207.458.457v2.727a.455.455 0 0 1-.457.457H5.004a.455.455 0 0 1-.457-.457V17c0-.25.203-.457.457-.457zm0 0M5.457 4.719a.909.909 0 0 0-.91.91v5.457c0 .504.406.91.91.91h14.555c.504 0 .91-.406.91-.91V5.629a.909.909 0 0 0-.91-.91zm.91 1.367h12.735c.25 0 .453.2.453.453v3.637a.454.454 0 0 1-.453.457H6.367a.452.452 0 0 1-.453-.457V6.539c0-.254.2-.453.453-.453zm0 0" fill="#bdbdbd"/></svg>
